X: 343
T: Go to Berwick Johnny
%R: jig, triple hornpipe
Z: 2014 John Chambers <jc:trillian.mit.edu>
B: Preston "Twenty four Country Dances for the Year 1798" p.152 #1
F: http://www.vwml.org/browse/browse-collections-dance-tune-books/browse-prestons1798# 2014-8-10
N: The 2nd strain has initial repeat but no final repeat; not fixed.
N: the 2nd strain's dance shows "the ___ Cu:" where ___ is a wide space that could be "2nd".
M: 6/4
L: 1/8
K: F
[|\
c2F2F2 c2dcBA | c2F2F2 c2A2f2 |\
c2F2F2 c2dcBA | B2G2G2 A2B2d2 |:\
f3gf2 F2ABcA | f3gf2 c2f2a2 |
f3gf2 F2ABcA | g3ag2 G2B2d2 |\
f3gf2 F2ABcA | f3gf2 c2f2a2 |\
f3ga2 gfg2fe | d2g2g2 G2B2d2 |]
% - - - - - - - - - - - - - - - - - - - - - - - - -
%%begintext align
%% Cross over & turn your part.r .| the ___ Cu:
%% do the same :| lead down the middle :|.
%% Right & left at top :|:
%%endtext
% - - - - - - - - - - - - - - - - - - - - - - - - -

%%sep 1 1 500
%%sep 1 1 500
